src/images/icons/svg/about.svg

<svg enable-background="new 0 0 512 512" viewBox="0 0 512 512" xmlns="http://www.w3.org/2000/svg"><path d="m510.702 438.722c-2.251-10.813-12.84-17.754-23.657-15.503-10.814 2.251-17.755 12.843-15.503 23.656 1.297 6.229-.248 12.613-4.236 17.519-2.31 2.841-7.461 7.606-15.999 7.606h-390.614c-8.538 0-13.689-4.766-15.999-7.606-3.989-4.905-5.533-11.29-4.236-17.519 20.756-99.695 108.691-172.521 210.24-174.977 1.759.068 3.526.102 5.302.102 1.782 0 3.556-.035 5.322-.103 71.532 1.716 137.648 37.947 177.687 97.66 6.151 9.175 18.574 11.625 27.75 5.474 9.174-6.151 11.625-18.575 5.473-27.749-32.817-48.944-80.47-84.534-134.804-102.417 33.11-24.829 54.572-64.388 54.572-108.865 0-74.99-61.009-136-136-136s-136 61.01-136 136c0 44.504 21.488 84.084 54.633 108.911-30.368 9.998-58.863 25.555-83.803 46.069-45.732 37.617-77.529 90.086-89.532 147.742-3.762 18.067.745 36.623 12.363 50.909 11.561 14.216 28.704 22.369 47.032 22.369h390.613c18.329 0 35.472-8.153 47.032-22.369 11.62-14.286 16.126-32.842 12.364-50.909zm-350.702-302.722c0-52.935 43.065-96 96-96s96 43.065 96 96c0 51.305-40.455 93.339-91.141 95.878-1.617-.03-3.237-.045-4.859-.045-1.614 0-3.228.016-4.84.046-50.695-2.529-91.16-44.567-91.16-95.879z"/></svg>

<?xml version="1.0" encoding="iso-8859-1"?>
<!-- Generator: Adobe Illustrator 19.0.0, SVG Export Plug-In . SVG Version: 6.00 Build 0)  -->
<svg version="1.1" id="Capa_1" xmlns="http://www.w3.org/2000/svg" xmlns:xlink="http://www.w3.org/1999/xlink" x="0px" y="0px"
	 viewBox="0 0 512 512" style="enable-background:new 0 0 512 512;" xml:space="preserve">
<g>
	<g>
		<path d="M510.702,438.722c-2.251-10.813-12.84-17.754-23.657-15.503c-10.814,2.251-17.755,12.843-15.503,23.656
			c1.297,6.229-0.248,12.613-4.236,17.519c-2.31,2.841-7.461,7.606-15.999,7.606H60.693c-8.538,0-13.689-4.766-15.999-7.606
			c-3.989-4.905-5.533-11.29-4.236-17.519c20.756-99.695,108.691-172.521,210.24-174.977c1.759,0.068,3.526,0.102,5.302,0.102
			c1.782,0,3.556-0.035,5.322-0.103c71.532,1.716,137.648,37.947,177.687,97.66c6.151,9.175,18.574,11.625,27.75,5.474
			c9.174-6.151,11.625-18.575,5.473-27.749c-32.817-48.944-80.47-84.534-134.804-102.417C370.538,220.036,392,180.477,392,136
			C392,61.01,330.991,0,256,0S120,61.01,120,136c0,44.504,21.488,84.084,54.633,108.911c-30.368,9.998-58.863,25.555-83.803,46.069
			c-45.732,37.617-77.529,90.086-89.532,147.742c-3.762,18.067,0.745,36.623,12.363,50.909C25.222,503.847,42.365,512,60.693,512
			h390.613c18.329,0,35.472-8.153,47.032-22.369C509.958,475.345,514.464,456.789,510.702,438.722z M160,136
			c0-52.935,43.065-96,96-96s96,43.065,96,96c0,51.305-40.455,93.339-91.141,95.878c-1.617-0.03-3.237-0.045-4.859-0.045
			c-1.614,0-3.228,0.016-4.84,0.046C200.465,229.35,160,187.312,160,136z"/>
	</g>
</g>
<g>
</g>
<g>
</g>
<g>
</g>
<g>
</g>
<g>
</g>
<g>
</g>
<g>
</g>
<g>
</g>
<g>
</g>
<g>
</g>
<g>
</g>
<g>
</g>
<g>
</g>
<g>
</g>
<g>
</g>
</svg>
